X:1
T:Coming by the Promise Way
T:Coming by the Promise Way
T:E. L. Ozendorff
T:Nina Clarke, 1907
T:Public Domain Courtesy of the Cyber Hymnal™
T:Public Domain Courtesy of the Cyber Hymnal™
C:E. L. Ozendorff
Z:Public Domain
Z:Courtesy of the Cyber Hymnal™
%%score ( 1 2 ) ( 3 4 )
L:1/8
Q:1/4=85
M:4/4
K:Bb
V:1 treble 
V:2 treble 
V:3 bass 
V:4 bass 
V:1
 [DF] | [DF][DF] [DG]>[DF] [DF] [DB]2 [Ec] | [Fd][=E^c] [Fd]>[_E=c] [DB]3 [DF] | %3
w: 1.~I|al- ways meet my Sav- ior Up-|on some pro- mise sweet, And|
w: 2.~I|tell Him all my trou- bles, It|gives my soul re- lief, His|
w: 3.~He|fits me for His ser- vice, With|life and love com- plete, I|
w: 4.~To|do His will— this on- ly Shall|be my one de- sire, In|
 [EG][GB] [GB]>[EG] [DF][FB][EA][DB] | c6 z [DF] | [Fd][Fd] [Fd]>[Ec] [Ec]<[DB] z [FB] | %6
w: there I list- en to what He may|say; He|“life e- ter- nal” gives me, For|
w: coun- sels I would ev- er then o-|bey; With|grace He doth sup- ply me, And|
w: yield un- to His own and pre- cious|way; To|work for Je- sus ev- er, Shall|
w: one- ness with my Sav- ior would I|stay; Thus|yoked with Him, Christ Je- sus, Work|
 [Ec][Ec] [Ec]>[E=B] [Ec]<!fermata![EG] [G_B]>[EG] | [DF][DB][DB][Ec] [Fd][DB] [Fd]>[Ec] | B6 || %9
w: Je- sus ev- er loves me, He is|com- ing by the pro- mise way to-|day.|
w: ev- er stand- eth by me, He is|com- ing by the pro- mise way to-|day.|
w: be my best en- dea- vor, For He|com- eth by the pro- mise way to-|day.|
w: joint- ly with my Sav- ior, I shall|meet Him by the pro- mise way to-|day.|
"^Refrain" !fermata![Fd]>[Ec] | [DB][DB] [DB]>[DB] [Ec][EB] [EG]2 | %11
w: ||
w: He is|com- ing by the pro- mise way,|
w: ||
w: ||
 [GB][GB] [GB]>[EG] [DF][DB] [DB]2 | [Fd][Fd] [Fd]>[Ec] [DB][DB][EA][DB] | c6 z [DF] | %14
w: |||
w: Com- ing by the pro- mise way,|Com- ing by the pro- mise way to-|day; My|
w: |||
w: |||
 [Fd][Fd] [Fd]>[Ec] [Ec] [DB]2 [FB] | [Ec][Ec] [Ec]>[E=B] [Ec]<!fermata![EG] [G_B]>[EG] | %16
w: ||
w: heart goes out to meet Him, With|joy and glad- ness greet Him, He is|
w: ||
w: ||
 [DF][DB][DB][Ec] [Fd][DB] [Fd]>[Ec] | B6 z |] %18
w: ||
w: com- ing by the pro- mise way to-|day.|
w: ||
w: ||
V:2
 x | x8 | x8 | x8 | (F2 =EE _E2) x2 | x8 | x8 | x8 | (D2 EE D2) || x2 | x8 | x8 | x8 | %13
 (F2 =EE _E2) x2 | x8 | x8 | x8 | (DDEE D2) x |] %18
V:3
 [B,,B,] | [B,,B,][B,,B,] [B,,B,]>[B,,B,] [B,,B,] [B,,F,]2 [B,,B,] | %2
 B,B, [F,B,]>[F,A,] [B,,B,]3 [B,,B,] | [E,B,][E,B,] [E,B,]>[E,B,] [D,B,][D,B,][C,F,][B,,B,] | %4
 ([F,A,]2 [C,G,][C,G,] [F,A,]2) z B, | B,B, B,>[F,A,] [F,A,]<[G,B,] z [D,B,] | %6
 [E,G,][E,G,] [E,G,]>[E,G,] [E,G,]<!fermata![E,B,] [E,B,]>[E,B,] | %7
 [F,B,][F,B,][F,B,][F,B,] [F,B,][F,B,] [F,A,]>[F,A,] | (B,2 G,_G, F,2) || %9
 !fermata![B,,B,]>[B,,B,] | [B,,B,][B,,B,] [B,,F,]>[B,,F,] [E,G,][E,G,] [E,B,]2 | %11
 [E,E][E,E] [E,E]>[E,B,] [B,,B,][B,,B,] [B,,B,]2 | B,B, B,>[F,A,] [G,B,][G,B,][F,C]B, | %13
 ([F,A,]2 [C,G,][C,G,] [F,A,]2) z B, | B,B, B,>[F,A,] [F,A,] [G,B,]2 [D,B,] | %15
 [E,G,][E,G,] [E,G,]>[E,G,] [E,G,]<!fermata![E,B,] [E,E]>[E,B,] | %16
 [F,B,][F,B,][F,B,][F,B,] [F,B,][F,B,] [F,A,]>[F,A,] | (B,B,G,_G, F,2) z |] %18
V:4
 x | x8 | B,B, x6 | x8 | x7 B, | B,B,B,3/2 x9/2 | x8 | x8 | B,,6 || x2 | x8 | x8 | %12
 B,B,B,3/2 x2 B, x3/2 | x7 B, | B,B,B,3/2 x9/2 | x8 | x8 | B,,6 x |] %18

